assets/static/images/store_default_logo.svg

<svg width="600" height="600" fill="none" xmlns="http://www.w3.org/2000/svg"><path fill="#fff" d="M0 0h600v600H0z"/><path d="M263.059 105.696c-33.209 6.312-64.497 21.294-90.131 43.302-74.543 63.993-92.218 167.391-44.023 257.068 16.577 30.844 42.65 55.87 73.883 71.621C235.284 494.042 269.097 502 302.086 502c44.298 0 87.113-14.379 122.737-42.204l-33.538-43.028c-44.078 34.356-103.361 40.448-158.197 14.928-25.689-11.964-46.877-32.38-59.392-57.791-34.746-70.469-15.973-150.432 48.688-194.008 11.912-8.013 25.141-14.105 38.973-17.837 87.826-23.929 168.296 32.929 183.501 112.673h-76.353c-3.513-8.562-8.728-16.574-15.699-23.544-28.05-28.045-73.554-28.045-101.659 0-28.049 28.044-28.049 73.542 0 101.641 28.05 28.1 73.609 28.045 101.659 0 6.971-6.97 12.186-14.982 15.699-23.544h131.409A2.085 2.085 0 00502 327.2v-25.19c0-122.991-111.649-220.462-238.941-196.314z" fill="#C4C4C4"/></svg>

<svg width="600" height="600" viewBox="0 0 600 600" fill="none" xmlns="http://www.w3.org/2000/svg">
<rect width="600" height="600" fill="white"/>
<path d="M263.059 105.696C229.85 112.008 198.562 126.99 172.928 148.998C98.3854 212.991 80.7104 316.389 128.905 406.066C145.482 436.91 171.555 461.936 202.788 477.687C235.284 494.042 269.097 502 302.086 502C346.384 502 389.199 487.621 424.823 459.796L391.285 416.768C347.207 451.124 287.924 457.216 233.088 431.696C207.399 419.732 186.211 399.316 173.696 373.905C138.95 303.436 157.723 223.473 222.384 179.897C234.296 171.884 247.525 165.792 261.357 162.06C349.183 138.131 429.653 194.989 444.858 274.733H368.505C364.992 266.171 359.777 258.159 352.806 251.189C324.756 223.144 279.252 223.144 251.147 251.189C223.098 279.233 223.098 324.731 251.147 352.83C279.197 380.93 324.756 380.875 352.806 352.83C359.777 345.86 364.992 337.848 368.505 329.286H499.914C501.067 329.286 502 328.353 502 327.2V302.01C502 179.019 390.351 81.548 263.059 105.696Z" fill="#C4C4C4"/>
</svg>
